remix/Business/printer-fill.svg

<svg viewBox="0 0 24 24" fill="currentColor" xmlns="http://www.w3.org/2000/svg"><path d="M7 17H17V22H7V17ZM19 20V15H5V20H3C2.44772 20 2 19.5523 2 19V9C2 8.44772 2.44772 8 3 8H21C21.5523 8 22 8.44772 22 9V19C22 19.5523 21.5523 20 21 20H19ZM5 10V12H8V10H5ZM7 2H17C17.5523 2 18 2.44772 18 3V6H6V3C6 2.44772 6.44772 2 7 2Z"/></svg>

<svg viewBox="0 0 24 24" xmlns="http://www.w3.org/2000/svg"><path fill="none" d="M0 0h24v24H0Z"/><path d="M7 17h10v5H7v-5Zm12 3v-5H5v5H3v0c-.56 0-1-.45-1-1V9v0c0-.56.44-1 1-1h18v0c.55 0 1 .44 1 1v10 0c0 .55-.45 1-1 1h-2ZM5 10v2h3v-2H5Zm2-8h10v0c.55 0 1 .44 1 1v3H6V3v0c0-.56.44-1 1-1Z"/></svg>
